X:1
T:Gumtree Canoe
M:3/4
L:1/4
K:F
 A/2| C C3/2 D/2| C C3/2 D/2| C F G| A2 A/2A/2| G G G| G F G| A F D|\
 D2 F/2D/2| C C3/2 D/2| C C3/2 D/2| C F G| A2 F/2A/2| c c/2d/2 c/2A/2|\
 G/2F/2 D2-| D z E/2D/2| C A3/2 G/2| F2 A| c2 A| c2 A/2A/2| A G F|\
 G2 F/2A/2| cc/2-d/2 c/2A/2| G/2F/2 D2-| D z E/2D/2| C A3/2 G/2| F2- F/2||\
